!!!OTL: MARIA GING AUS WANDERN
!!!ARE: Europa, Mitteleuropa, Deutschland, Schlesien, Schnurgast
!!!SCT: E2061
!!!YEM: Copyright 1995, estate of Helmut Schaffrath.
**kern
*ICvox
*Ivox
*M4/4
*k[f#]
*G:
{4d
=1
4g
4g
4g
4b
=2
2g
4d}
{4d
=3
4g
4g
4a
4a
=4
2b
4r}
{8g
8a
=5
2b
4cc
4ee
=6
2dd
4b}
{4b
=7
4.dd
8dd
4cc
4a
=8
2g
4r}
==
!!!AGN: geistlich, Marien - Lied, Legende
!!!ONB: ESAC (Essen Associative Code) Database: ERK3
!!!AMT: simple quadruple
!!!AIN: vox
!!!EED: Helmut Schaffrath
!!!EEV: 1.0
*-
